X: 11786
T: Elizabeth's
R: waltz
M: 3/4
K: Gmajor
V:1
|:"G"Bc|"G"d3e dB|"C"g2 f2 e2|"G"d2 B2 G2|"Em"E4 GA|"G"B3c BG|
V:2
|:GA|BA G2 F2|E2 D2 C2|B,2 D4|GA Bc BA|GF E2 D2|
V:1
"C"c2 B2 c2|"Em"d2 B2 d2|"A"A4 Bc|"G"d3e dB|"C"g2 f2 e2|"G"d2 B2 G2|
V:2
C2 D2 E2|B,2 D4|CD EF GA|BA G2 F2|E2 D2 C2|B,2 D4|
V:1
"Em"E2 G2 A2|"Bm"B3c BG|"Am"c2 B2 A2|"G"G6|"G"G6:|
V:2
GA B2 c2|de f2 g2|a2 g2 f2|g2 d2 B2|G6:|
V:1
|:Bc|"G"d3e dB|"C"e2 g2 a2|"Bm"b3a gd|"Em"e2 g2 "C"e2|"Bm"d3e dB|
V:2
|:GA|BA G2 FG|c2 B2 c2|d2 F2 B2|G2 E2 c2|BA G2 F2|
V:1
"Em"G2 F2 G2|"Am"A6|"D"A4 Bc|"G"d3e dB|"Em"e2 g2 a2|"Bm"b3a gd|
V:2
E2 D2 E2|CD EG AG|FE DF GA|BA G2 F2|E2 B2 c2|d2 F2 B2|
V:1
"C"eg3 e2|"G"d3e "Em"dB|"Am"c2 B2 "D"A2|"G"G6|"G"G4:|
V:2
c2 E2 G2|BA G2 FG|A2 G2 F2|G2 B2 d2|g4:|

